src/assets/icons/menu-settings.svg

<?xml version="1.0" encoding="UTF-8"?>
<svg width="24px" height="24px" viewBox="0 0 24 24" version="1.1" xmlns="http://www.w3.org/2000/svg" xmlns:xlink="http://www.w3.org/1999/xlink">
    <title>形状结合备份 2</title>
    <g id="扩展程序" stroke="none" stroke-width="1" fill="none" fill-rule="evenodd" opacity="0.5">
        <g id="NFT" transform="translate(-326.000000, -552.000000)" stroke="#6E7585" stroke-width="2">
            <g id="底部菜单" transform="translate(0.000000, 528.000000)">
                <g id="设置" transform="translate(326.000000, 24.000000)">
                    <g id="编组" transform="translate(2.000000, 2.213643)">
                        <path d="M13.1705162,0.29941222 C14.4616604,0.730715339 15.6355284,1.41822128 16.6317762,2.30158615 L16.6812909,3.75943015 C16.727371,5.08913504 17.4315987,6.30889328 18.5601169,7.01365222 L19.8001068,7.78706121 C19.9311895,8.43306268 20,9.10167388 20,9.78635663 C20,10.4710394 19.9311895,11.1396506 19.8001068,11.785652 L18.5601169,12.559061 C17.4315987,13.26382 16.727371,14.4835782 16.6812909,15.8132831 L16.6317762,17.2711271 C15.6355284,18.154492 14.4616604,18.8419979 13.1705162,19.273301 L11.878826,18.5859875 C10.7042278,17.9610416 9.29577225,17.9610416 8.12117401,18.5859875 L6.82948376,19.273301 C5.53877558,18.8421436 4.36526444,18.1549563 3.36923314,17.272022 L3.3187091,15.8132831 C3.27262905,14.4835782 2.5684013,13.26382 1.43988312,12.559061 L0.199893235,11.785652 C0.0688104754,11.1396506 0,10.4710394 0,9.78635663 C0,9.10167388 0.0688104754,8.43306268 0.199893235,7.78706121 L1.43988312,7.01365222 C2.5684013,6.30889328 3.27262905,5.08913504 3.3187091,3.75943015 L3.36923314,2.30069126 C4.36552011,1.41753032 5.53937805,0.730216909 6.83047772,0.299080249 L8.12117401,0.986725745 C9.29577225,1.61167169 10.7042278,1.61167169 11.878826,0.986725745 Z" id="星形-2"></path>
                        <circle id="椭圆形备份" cx="10" cy="9.78635663" r="3"></circle>
                    </g>
                </g>
            </g>
        </g>
    </g>
</svg>

<svg width="24" height="24" xmlns="http://www.w3.org/2000/svg"><g transform="translate(2 2.214)" stroke="#6e7585" stroke-width="2" fill="none" fill-rule="evenodd" opacity=".5"><path d="M13.17.3a9.99 9.99 0 0 1 3.462 2.002l.05 1.457a4 4 0 0 0 1.878 3.255l1.24.773a10.046 10.046 0 0 1 0 3.999l-1.24.773a4 4 0 0 0-1.879 3.254l-.05 1.458a9.99 9.99 0 0 1-3.46 2.002l-1.292-.687a4 4 0 0 0-3.758 0l-1.292.687a9.99 9.99 0 0 1-3.46-2.001l-.05-1.459a4 4 0 0 0-1.88-3.254L.2 11.786a10.046 10.046 0 0 1 0-3.999l1.24-.773a4 4 0 0 0 1.88-3.255l.05-1.458A9.99 9.99 0 0 1 6.83.299l1.291.688a4 4 0 0 0 3.758 0z"/><circle cx="10" cy="9.786" r="3"/></g></svg>
